flaticon/symbols/neptune.svg

<svg xmlns="http://www.w3.org/2000/svg" width="32" height="32" viewBox="0 0 24 24">
    <path d="M 23.390625 2.742188 L 20.808594 0.160156 C 20.59375 -0.0546875 20.246094 -0.0546875 20.03125 0.160156 L 17.441406 2.738281 C 17.078125 3.101562 16.941406 3.632812 17.085938 4.125 C 17.238281 4.632812 17.664062 5.011719 18.226562 5.132812 C 18.476562 5.1875 18.730469 5.175781 18.972656 5.105469 C 18.707031 8.5625 16.511719 11.261719 13.398438 11.921875 L 13.398438 5.144531 C 13.570312 5.210938 13.746094 5.25 13.929688 5.238281 C 14.539062 5.230469 14.9375 4.828125 14.976562 4.789062 C 15.519531 4.242188 15.519531 3.355469 14.976562 2.808594 L 12.394531 0.230469 C 12.179688 0.015625 11.832031 0.015625 11.617188 0.226562 L 9.023438 2.804688 C 8.480469 3.351562 8.480469 4.238281 9.023438 4.785156 C 9.40625 5.167969 10.054688 5.226562 10.601562 5.066406 L 10.601562 11.921875 C 7.488281 11.261719 5.292969 8.5625 5.027344 5.109375 C 5.269531 5.175781 5.523438 5.1875 5.773438 5.132812 C 6.335938 5.011719 6.761719 4.632812 6.914062 4.125 C 7.058594 3.632812 6.921875 3.101562 6.558594 2.738281 L 3.96875 0.160156 C 3.867188 0.0585938 3.726562 0 3.578125 0 C 3.429688 0 3.292969 0.0585938 3.191406 0.160156 L 0.609375 2.742188 C 0.34375 3.007812 0.199219 3.359375 0.199219 3.730469 C 0.199219 4.105469 0.34375 4.457031 0.609375 4.722656 C 0.980469 5.09375 1.65625 5.164062 2.210938 5.023438 C 2.421875 10.785156 5.585938 14.605469 10.601562 15.136719 L 10.601562 18.398438 L 9.398438 18.398438 C 8.628906 18.398438 8 19.027344 8 19.800781 C 8 20.570312 8.628906 21.199219 9.398438 21.199219 L 10.601562 21.199219 L 10.601562 22.601562 C 10.601562 23.371094 11.226562 24 12 24 C 12.773438 24 13.398438 23.371094 13.398438 22.601562 L 13.398438 21.199219 L 14.601562 21.199219 C 15.371094 21.199219 16 20.570312 16 19.800781 C 16 19.027344 15.371094 18.398438 14.601562 18.398438 L 13.398438 18.398438 L 13.398438 15.085938 C 18.332031 14.386719 21.558594 10.503906 21.789062 5.023438 C 22.34375 5.167969 23.019531 5.09375 23.390625 4.722656 C 23.65625 4.457031 23.800781 4.105469 23.800781 3.730469 C 23.800781 3.359375 23.65625 3.007812 23.390625 2.742188 Z M 22.824219 4.15625 C 22.617188 4.363281 21.925781 4.332031 21.667969 4.101562 C 21.550781 3.996094 21.382812 3.96875 21.238281 4.035156 C 21.09375 4.097656 21 4.242188 21 4.398438 C 21 9.90625 17.84375 13.804688 12.957031 14.335938 C 12.753906 14.359375 12.601562 14.527344 12.601562 14.734375 L 12.601562 18.800781 C 12.601562 19.019531 12.777344 19.199219 13 19.199219 L 14.601562 19.199219 C 14.929688 19.199219 15.199219 19.46875 15.199219 19.800781 C 15.199219 20.128906 14.929688 20.398438 14.601562 20.398438 L 13 20.398438 C 12.777344 20.398438 12.601562 20.578125 12.601562 20.800781 L 12.601562 22.601562 C 12.601562 22.929688 12.332031 23.199219 12 23.199219 C 11.667969 23.199219 11.398438 22.929688 11.398438 22.601562 L 11.398438 20.800781 C 11.398438 20.578125 11.222656 20.398438 11 20.398438 L 9.398438 20.398438 C 9.070312 20.398438 8.800781 20.128906 8.800781 19.800781 C 8.800781 19.46875 9.070312 19.199219 9.398438 19.199219 L 11 19.199219 C 11.222656 19.199219 11.398438 19.019531 11.398438 18.800781 L 11.398438 14.769531 C 11.398438 14.558594 11.238281 14.386719 11.027344 14.371094 C 6.078125 14.011719 3 10.191406 3 4.398438 C 3 4.242188 2.90625 4.097656 2.761719 4.035156 C 2.617188 3.96875 2.449219 3.996094 2.332031 4.101562 C 2.078125 4.332031 1.382812 4.363281 1.175781 4.15625 C 1.0625 4.042969 1 3.890625 1 3.730469 C 1 3.570312 1.0625 3.421875 1.175781 3.308594 L 3.582031 0.902344 L 5.992188 3.304688 C 6.148438 3.457031 6.207031 3.6875 6.144531 3.898438 C 6.105469 4.03125 5.984375 4.269531 5.601562 4.351562 C 5.359375 4.40625 5.085938 4.320312 4.882812 4.117188 C 4.769531 4.003906 4.597656 3.96875 4.445312 4.03125 C 4.296875 4.09375 4.199219 4.238281 4.199219 4.398438 C 4.199219 8.773438 6.972656 12.222656 10.941406 12.796875 C 11.058594 12.8125 11.175781 12.777344 11.261719 12.703125 C 11.347656 12.625 11.398438 12.515625 11.398438 12.398438 L 11.398438 4.398438 C 11.398438 4.238281 11.304688 4.09375 11.152344 4.03125 C 11.003906 3.96875 10.832031 4.003906 10.71875 4.117188 C 10.457031 4.375 9.804688 4.4375 9.589844 4.21875 C 9.355469 3.988281 9.355469 3.605469 9.589844 3.371094 L 12.003906 0.972656 L 14.410156 3.375 C 14.644531 3.609375 14.644531 3.992188 14.40625 4.230469 C 14.402344 4.230469 14.195312 4.4375 13.910156 4.4375 C 13.707031 4.4375 13.496094 4.332031 13.28125 4.117188 C 13.167969 4.003906 12.996094 3.96875 12.847656 4.03125 C 12.695312 4.09375 12.601562 4.238281 12.601562 4.398438 L 12.601562 12.398438 C 12.601562 12.515625 12.652344 12.625 12.738281 12.703125 C 12.824219 12.777344 12.941406 12.8125 13.058594 12.796875 C 17.027344 12.222656 19.800781 8.773438 19.800781 4.398438 C 19.800781 4.238281 19.699219 4.097656 19.546875 4.035156 C 19.398438 3.972656 19.222656 4.011719 19.105469 4.128906 C 18.914062 4.320312 18.644531 4.40625 18.398438 4.351562 C 18.019531 4.269531 17.894531 4.03125 17.855469 3.898438 C 17.792969 3.6875 17.851562 3.457031 18.003906 3.304688 L 20.417969 0.902344 L 22.824219 3.308594 C 23.058594 3.542969 23.058594 3.921875 22.824219 4.15625 Z M 22.824219 4.15625"/>
</svg>

<svg xmlns="http://www.w3.org/2000/svg" width="32" height="32" viewBox="0 0 24 24">
    <path d="M23.39 2.742L20.81.16a.55.55 0 0 0-.778 0l-2.59 2.578c-.363.364-.5.895-.355 1.387.152.508.578.887 1.14 1.008.25.054.504.043.747-.028-.266 3.457-2.461 6.157-5.575 6.817V5.145c.172.066.348.105.532.093.61-.008 1.008-.41 1.047-.449a1.408 1.408 0 0 0 0-1.98L12.395.23a.553.553 0 0 0-.778-.003L9.023 2.805a1.408 1.408 0 0 0 0 1.98c.383.383 1.032.442 1.579.281v6.856c-3.114-.66-5.309-3.36-5.575-6.813.243.067.496.079.746.024.563-.121.989-.5 1.141-1.008a1.402 1.402 0 0 0-.355-1.387L3.969.16a.553.553 0 0 0-.778 0L.61 2.742a1.39 1.39 0 0 0-.41.988c0 .375.145.727.41.993.371.37 1.047.441 1.602.3.21 5.762 3.375 9.582 8.39 10.114v3.261H9.399c-.77 0-1.398.63-1.398 1.403 0 .77.629 1.398 1.398 1.398h1.204v1.403a1.4 1.4 0 0 0 2.796 0v-1.403h1.204c.77 0 1.398-.629 1.398-1.398 0-.774-.629-1.403-1.398-1.403h-1.204v-3.312c4.934-.7 8.16-4.582 8.391-10.063.555.145 1.23.07 1.602-.3.265-.266.41-.618.41-.993a1.39 1.39 0 0 0-.41-.988zm-.566 1.414c-.207.207-.898.176-1.156-.054a.395.395 0 0 0-.43-.067.398.398 0 0 0-.238.363c0 5.508-3.156 9.407-8.043 9.938a.398.398 0 0 0-.355.398v4.067c0 .219.175.398.398.398h1.602a.6.6 0 0 1 0 1.2H13a.398.398 0 0 0-.398.402v1.8a.601.601 0 0 1-1.204 0v-1.8a.398.398 0 0 0-.398-.403H9.398a.6.6 0 0 1 0-1.199H11c.223 0 .398-.18.398-.398V14.77c0-.211-.16-.383-.37-.399C6.077 14.011 3 10.191 3 4.398c0-.156-.094-.3-.238-.363a.395.395 0 0 0-.43.067c-.254.23-.95.261-1.156.054a.6.6 0 0 1 0-.847L3.582.902l2.41 2.403a.596.596 0 0 1 .153.593c-.04.133-.16.372-.543.454-.243.054-.516-.032-.72-.235a.402.402 0 0 0-.683.281c0 4.375 2.774 7.825 6.742 8.399a.409.409 0 0 0 .32-.094.412.412 0 0 0 .137-.305v-8a.397.397 0 1 0-.68-.281c-.261.258-.913.32-1.128.102a.599.599 0 0 1 0-.848L12.004.973l2.406 2.402a.605.605 0 0 1-.004.855c-.004 0-.21.207-.496.207-.203 0-.414-.105-.629-.32a.397.397 0 0 0-.68.281v8c0 .118.051.227.137.305.086.074.203.11.32.094 3.97-.574 6.743-4.024 6.743-8.399a.407.407 0 0 0-.695-.27.776.776 0 0 1-.708.224c-.378-.082-.503-.32-.543-.454a.603.603 0 0 1 .149-.593L20.418.902l2.406 2.407a.599.599 0 0 1 0 .847zm0 0"/>
</svg>
